X:0
T:Coleshill
G:psalm tune
M:2/2
L:1/2
Q:1/2=80
K:AMin
% dorian/minor hexatonic
A|AG|cG|AA|E||c|ed|c   G|c||
c|ed|cG|AA|E||c|GA|d/c/B|A|]
